assets/ai/ai-cv-square.svg

<svg xmlns="http://www.w3.org/2000/svg" width="100%" height="100%" viewBox="-75.52 -43.52 599.04 599.04"><path d="M 48 32 C 21.5 32 0 53.5 0 80 L 0 432 C 0 458.5 21.5 480 48 480 L 400 480 C 426.5 480 448 458.5 448 432 L 448 80 C 448 53.5 426.5 32 400 32 L 48 32 z M 146.88086 165.23438 C 166.51551 165.23438 183.96176 172.02263 196.80859 182.20508 C 208.68854 191.6569 214.25262 201.11234 219.10742 209.59766 L 185.18359 226.54688 C 182.75692 220.98152 179.83663 215.15976 172.33789 208.86523 C 164.0899 202.3133 155.85965 200.38086 148.81445 200.38086 C 121.18778 200.38086 106.64453 226.07442 106.64453 254.66797 C 106.64453 292.24121 125.80523 310.88867 148.81445 310.88867 C 171.11309 310.88867 180.09182 295.37817 185.89453 285.45312 L 219.59961 302.66016 C 213.28505 312.58559 207.22637 322.29529 193.65039 331.72852 C 186.3879 336.8192 169.67288 346.76562 145.91406 346.76562 C 100.58611 346.76562 64 313.80959 64 255.87109 C 64 205.2352 98.415334 165.23438 146.88086 165.23438 z M 222.36328 170.5625 L 267.92773 170.5625 L 303.31055 292.24023 L 338.43555 170.5625 L 384 170.5625 L 324.62109 341.67383 L 281.00977 341.67383 L 222.36328 170.5625 z"/></svg>

<svg xmlns="http://www.w3.org/2000/svg" width="100%" height="100%" viewBox="-75.52 -43.52 599.04 599.04"><path d="M48 32C21.5 32 0 53.5 0 80v352c0 26.5 21.5 48 48 48h352c26.5 0 48-21.5 48-48V80c0-26.5-21.5-48-48-48H48zm98.88 133.234c19.636 0 37.082 6.789 49.929 16.971 11.88 9.452 17.444 18.907 22.298 27.393l-33.923 16.949c-2.427-5.565-5.347-11.387-12.846-17.682-8.248-6.552-16.478-8.484-23.524-8.484-27.626 0-42.17 25.693-42.17 54.287 0 37.573 19.161 56.22 42.17 56.22 22.3 0 31.278-15.51 37.08-25.435L219.6 302.66c-6.315 9.926-12.374 19.635-25.95 29.069-7.262 5.09-23.977 15.037-47.736 15.037C100.586 346.766 64 313.81 64 255.87c0-50.636 34.415-90.637 82.88-90.637zm75.483 5.328h45.565L303.31 292.24l35.125-121.678H384l-59.379 171.112H281.01l-58.647-171.111z"/></svg>
